X: 137
T:Missa La sol fa re mi / Gloria
N: Derived from Jos1102b-Missa_La_sol_fa_re_mi-Gloria.krn
C: Josquin des Prez
%%abc-version 2.0
%%abcx-abcm2ps-target-version 5.9.1 (29 Sep 2008)
%%abc-creator hum2abc beta
%%abcx-conversion-date 2019/02/12 16:15:44
%%abc-edited-by Jesse Rodin
%%abc-edited-by Jesse Rodin; Victoria Chang 2011/05/04
%%abcx-initial-encoding-date 2011/05/04/
%%humdrum-veritas 4195332110
%%humdrum-veritas-data 2290584875
%%linebreak <none>
%%barnumbers 0
L: 1/4
M: 3/1
Q: 1/2=120
%%staves [1 2 3 4]
V: 1 clef=treble
V: 2 clef=treble-8
V: 3 clef=treble-8
V: 4 clef=bass
K: C
[V:1] E8G4 | 
[V:2] B4c4B4 | 
[V:3] e12 | 
[V:4] E,8E,4 | 
[V:1] A8A4 | 
[V:2] A4c6d2 | 
[V:3] d2c2A8 | 
[V:4] F,8F,4 | 
[V:1] G3AB6AB | 
[V:2] e8z4 | 
[V:3] B8e4- | 
[V:4] E,8z4 | 
[V:1] c2B3AA4^G2 | 
[V:2] e4e4e4 | 
[V:3] e2d2c2A2B4 | 
[V:4] E,4E,4E,4 | 
[V:1] A4z2A2A2G2 | 
[V:2] c3de2c2f2e2 | 
[V:3] z12 | 
[V:4] F,4E,2F,3D,E,2 | 
[V:1] A2F2G2E4D2 | 
[V:2] c2d3cB4A2 | 
[V:3] z12 | 
[V:4] F,2D,2E,2G,2F,4 | 
[V:1] E8z4 | 
[V:2] B4z2e3dcA | 
[V:3] z12 | 
[V:4] E,8z4 | 
[V:1] G4A8 | 
[V:2] B4z2A2c2d2 | 
[V:3] e4d2c2A4 | 
[V:4] E,4F,4F,4 | 
[V:1] G4E4z2G2 | 
[V:2] e4z2B2c2B2 | 
[V:3] B4z2e6 | 
[V:4] E,4z2E,4E,2 | 
[V:1] F2G2A4G4 | 
[V:2] A2G2c3de4 | 
[V:3] d2c2A4B4 | 
[V:4] F,2E,2F,4E,4 | 
[V:1] E4z2G2A2A2 | 
[V:2] z2g2f2e3cd2 | 
[V:3] z2e2d2c2A4 | 
[V:4] z2C,2D,2E,2F,4 | 
[V:1] G4E2G2A2B2 | 
[V:2] e2B2c3BA2G2 | 
[V:3] B4e4d4 | 
[V:4] E,4z2E,2F,2G,2 | 
[V:1] c3BG2A4GF | 
[V:2] cde4d2e4- | 
[V:3] c6A2B4 | 
[V:4] A,3G,E,2F,2E,4 | 
[V:1] G2E2G3ABcd2 | 
[V:2] e8z4 | 
[V:3] z12 | 
[V:4] z4E,4G,2G,2 | 
[V:1] c2B3AA4^G2 | 
[V:2] z12 | 
[V:3] z12 | 
[V:4] A,2G,2A,4B,4 | 
[V:1] A2c4c2c2B2 | 
[V:2] z2A4A2A2G2 | 
[V:3] e12- | 
[V:4] A,2A,,4A,,2A,,2E,2 | 
[V:1] c2B2c2B2G4 | 
[V:2] A2G2A2G2E2c2 | 
[V:3] e12 | 
[V:4] z2E,2A,,2E,3C,C,2 | 
[V:1] z12 | 
[V:2] B2Af2ee4d2 | 
[V:3] d2c2A4A4 | 
[V:4] G,2A,4G,2F,4 | 
[V:1] z12 | 
[V:2] e2g3fd2z2c2- | 
[V:3] B8z4 | 
[V:4] E,4z2G,2B,2A,2 | 
[V:1] z2G2B2A2c3B | 
[V:2] c2e2d2f3ec2 | 
[V:3] z12 | 
[V:4] C3B,G,2F,2A,3B, | 
[V:1] G3c3B3A3 | 
[V:2] e4f2g3^f/e/^f2 | 
[V:3] z12 | 
[V:4] C4z4z4 | 
[V:1] G3A3G3F3 | 
[V:2] g2c2d2e3da2 | 
[V:3] z12 | 
[V:4] z12 | 
[V:1] E3A3GEGAF2 | 
[V:2] g2c2d2e3cd2 | 
[V:3] z12 | 
[V:4] z12 | 
[V:1] E3CC2G4A2 | 
[V:2] e2g3fe3dc2 | 
[V:3] e12 | 
[V:4] C,8C3B, | 
[V:1] B2c3BA3GFE | 
[V:2] B2A2c4z2d2- | 
[V:3] d2c2A8 | 
[V:4] G,2A,3G,F,E,D,4 | 
[V:1] D8z2D2 | 
[V:2] d4B2G2d4 | 
[V:3] B12 | 
[V:4] B,,2G,,2G,8 | 
[V:1] G4A2B3GG2- | 
[V:2] G2c4d2e3c | 
[V:3] z12 | 
[V:4] z12 | 
[V:1] G2c2A2B3GGE | 
[V:2] c4f2d2e3c | 
[V:3] z12 | 
[V:4] z12 | 
[V:1] E2A2F2G3EEC | 
[V:2] cAA2d2B2c3A | 
[V:3] z12 | 
[V:4] z12 | 
[V:1] C2G4E2F4- | 
[V:2] A2G2c3BA4 | 
[V:3] e8d2c2 | 
[V:4] C,8D,4 | 
[V:1] F2EDD2G3FED | 
[V:2] F4G8 | 
[V:3] A4B8 | 
[V:4] D,4G,,4z4 | 
[V:1] C4D4C4 | 
[V:2] z4z2G2A2c2- | 
[V:3] z12 | 
[V:4] A,2C3B,G,B,A,3G, | 
[V:1] z2G2A2c3BGB | 
[V:2] cBGBA3GEDEG | 
[V:3] z12 | 
[V:4] E,D,E,G,F,3E,C,2G,2 | 
[V:1] A3GE2B2c3B | 
[V:2] F3EC2G2A2c2 | 
[V:3] z12 | 
[V:4] A,2C3B,G,B,A,3G, | 
[V:1] G2A4G2A2c2 | 
[V:2] BAc2BAB2A4 | 
[V:3] e12- | 
[V:4] E,8z2A,2 | 
[V:1] B2c4B2A2B2- | 
[V:2] z2e2f2d2z2d2 | 
[V:3] e4d8 | 
[V:4] G,2A,2F,2G,2F,2G,2 | 
[V:1] B2A2G2A4G2 | 
[V:2] e2c2z2c2d2B2 | 
[V:3] c6A2B4 | 
[V:4] E,2F,2E,2F,2D,2E,2 | 
[V:1] A2E2F8 | 
[V:2] c4A8 | 
[V:3] z2e4d2c2A2 | 
[V:4] C,4D,4A,,4 | 
[V:1] E12 ||  
[V:2] G12 ||  
[V:3] B12 ||  
[V:4] E,12 ||  
[V:1] [M:2/1]z8 | 
[V:2] [M:2/1]d8 | 
[V:3] [M:2/1]z8 | 
[V:4] [M:2/1]D,8 | 
[V:1] A8 | 
[V:2] f4f4 | 
[V:3] z8 | 
[V:4] D,4D,4 | 
[V:1] c4c4 | 
[V:2] e6c2 | 
[V:3] z8 | 
[V:4] A,4A,4 | 
[V:1] B4G4 | 
[V:2] d4e4 | 
[V:3] z8 | 
[V:4] G,6F,E, | 
[V:1] A4B4 | 
[V:2] f4e2d2 | 
[V:3] z8 | 
[V:4] D,4G,4 | 
[V:1] c4B2A2 | 
[V:2] c4d4 | 
[V:3] z8 | 
[V:4] A,4B,4 | 
[V:1] G8 | 
[V:2] e6c2- | 
[V:3] z8 | 
[V:4] C8 | 
[V:1] z4G4- | 
[V:2] c2BAc2B2 | 
[V:3] e8- | 
[V:4] z4C,4 | 
[V:1] G4G4 | 
[V:2] G4c4 | 
[V:3] e8 | 
[V:4] C,4C,4 | 
[V:1] G8 | 
[V:2] B8 | 
[V:3] d8- | 
[V:4] G,8 | 
[V:1] F6ED | 
[V:2] A4z2A2- | 
[V:3] d8 | 
[V:4] D,8 | 
[V:1] F2E4DC | 
[V:2] ABcde2f2 | 
[V:3] c4A4 | 
[V:4] A,8 | 
[V:1] E2D2z2D2- | 
[V:2] g6fe | 
[V:3] B8- | 
[V:4] G,8 | 
[V:1] D2CB,B,2A,G, | 
[V:2] d6B2- | 
[V:3] B8- | 
[V:4] z4G,4 | 
[V:1] G,4z2G2- | 
[V:2] B2AGG4 | 
[V:3] B8 | 
[V:4] G,6F,E, | 
[V:1] G2G4FE | 
[V:2] z8 | 
[V:3] z8 | 
[V:4] E,2C,2G,4- | 
[V:1] E2C2G4- | 
[V:2] z8 | 
[V:3] z8 | 
[V:4] G,2A,2B,2C2- | 
[V:1] G2A2B2c2- | 
[V:2] z4z2c2- | 
[V:3] z8 | 
[V:4] C2B,A,G,2A,2- | 
[V:1] c2BAG2A2- | 
[V:2] c2d2e2f2- | 
[V:3] z8 | 
[V:4] A,2G,F,E,2D,2 | 
[V:1] A2GFE4 | 
[V:2] f2edc2A2 | 
[V:3] z8 | 
[V:4] F,2G,2A,4 | 
[V:1] z4G4- | 
[V:2] c4B4- | 
[V:3] e8- | 
[V:4] z4E,4- | 
[V:1] G2G2G4 | 
[V:2] B2B2B4 | 
[V:3] e8- | 
[V:4] E,2E,2E,4 | 
[V:1] G2G2G2E2 | 
[V:2] c2c2c2c2 | 
[V:3] e8 | 
[V:4] C,2C,2C,2C,2 | 
[V:1] F4G4 | 
[V:2] A2B3AG2- | 
[V:3] d8 | 
[V:4] D,4B,,4 | 
[V:1] A8 | 
[V:2] G2^FE^FGA^F | 
[V:3] c4A4 | 
[V:4] A,,8 | 
[V:1] D8- | 
[V:2] G8 | 
[V:3] B8- | 
[V:4] G,,2G,4F,E, | 
[V:1] D8 | 
[V:2] z2G2F2G2- | 
[V:3] B8- | 
[V:4] G,3F,D,2G,,2 | 
[V:1] z8 | 
[V:2] GABcd2e2 | 
[V:3] B8- | 
[V:4] z2G,4F,E, | 
[V:1] z4D4 | 
[V:2] d2G2F2G2- | 
[V:3] B8 | 
[V:4] G,3F,D,2G,,2 | 
[V:1] E3FGAB2- | 
[V:2] G2FEE2B2 | 
[V:3] z2e4d2 | 
[V:4] C,3D,E,F,G,2 | 
[V:1] BAA4^G2 | 
[V:2] c2d2e4 | 
[V:3] c2A2B4 | 
[V:4] A,2F,2E,4 | 
[V:1] A4z4 | 
[V:2] z8 | 
[V:3] z2A4G2 | 
[V:4] A,,3B,,C,D,E,2- | 
[V:1] z8 | 
[V:2] z8 | 
[V:3] F2D2E4 | 
[V:4] E,D,D,4^C,2 | 
[V:1] z8 | 
[V:2] A3Bcde2- | 
[V:3] z2A4G2 | 
[V:4] D,4z4 | 
[V:1] z8 | 
[V:2] edd4^c2 | 
[V:3] F2D2E4 | 
[V:4] z8 | 
[V:1] A3Bcde2- | 
[V:2] d2a4g2 | 
[V:3] z8 | 
[V:4] z2D,2C,2C,2 | 
[V:1] edd4^c2 | 
[V:2] f2d2e4 | 
[V:3] z8 | 
[V:4] D,2B,,2A,,4 | 
[V:1] d2A2c2B2 | 
[V:2] d2f2e2g2 | 
[V:3] z8 | 
[V:4] z8 | 
[V:1] A2G2F4 | 
[V:2] f2e4d2 | 
[V:3] z8 | 
[V:4] z8 | 
[V:1] E4z4 | 
[V:2] e2c2B4 | 
[V:3] z2e4d2 | 
[V:4] z2A,2G,2G,2 | 
[V:1] z2A2G2G2 | 
[V:2] z4z2e2 | 
[V:3] c2A2B4 | 
[V:4] A,2F,2E,4 | 
[V:1] A2F2E4 | 
[V:2] d2d2e2c2 | 
[V:3] z4z2e2- | 
[V:4] z4(3A,2A,2A,2 | 
[V:1] z4(3A2A2A2 | 
[V:2] B4z4 | 
[V:3] e2d2c2A2 | 
[V:4] (3:2:4G,4G,2A,2F,4 | 
[V:1] (3:2:4G4G2A2F4 | 
[V:2] (3:2:5e2e2e2d4d2 | 
[V:3] B4z4 | 
[V:4] E,4z4 | 
[V:1] E4z4 | 
[V:2] (3:2:2e2c4B4 | 
[V:3] z2e4d2 | 
[V:4] z2A,2G,2G,2 | 
[V:1] z2A2G2G2 | 
[V:2] z4z2e2 | 
[V:3] c2A2B4 | 
[V:4] A,2F,2E,4 | 
[V:1] A2F2E4 | 
[V:2] d2d2e2c2 | 
[V:3] z8 | 
[V:4] z4E,4- | 
[V:1] z4B4 | 
[V:2] B4z4 | 
[V:3] z2e4d2 | 
[V:4] E,4G,4 | 
[V:1] c4B2G2- | 
[V:2] z2e2d2e2- | 
[V:3] c2A2B4 | 
[V:4] A,4z2E,2 | 
[V:1] GFGAB2B2 | 
[V:2] e2dcB4 | 
[V:3] z2e4d2 | 
[V:4] E,4G,4 | 
[V:1] E4z2G2 | 
[V:2] z2e2d2e2 | 
[V:3] c2A2B4 | 
[V:4] A,4z2E,2 | 
[V:1] G3ABcB2- | 
[V:2] B2g4g2 | 
[V:3] z2e4d2 | 
[V:4] E,4G,4 | 
[V:1] BAc4BA | 
[V:2] f2e4d2 | 
[V:3] c4A4 | 
[V:4] A,4F,4 | 
[V:1] G8- | 
[V:2] e4z2E2 | 
[V:3] B8- | 
[V:4] E,8 | 
[V:1] G8 | 
[V:2] E3FGAB2- | 
[V:3] B8 | 
[V:4] z2E,2E,3F, | 
[V:1] z8 | 
[V:2] Bcd3Ac2 | 
[V:3] z8 | 
[V:4] G,A,B,3A,A,2- | 
[V:1] z4z2E2 | 
[V:2] B4A4- | 
[V:3] z8 | 
[V:4] A,2^G,2A,3A,, | 
[V:1] E3FGAB2- | 
[V:2] A4z4 | 
[V:3] z2e4d2 | 
[V:4] A,,4z4 | 
[V:1] BAA4^G2 | 
[V:2] z8 | 
[V:3] c2A2B4 | 
[V:4] z8 | 
[V:1] A2A2A2A2 | 
[V:2] z2A2c2d2 | 
[V:3] z2e4d2 | 
[V:4] z2A,2A,2D,2 | 
[V:1] c4B2G2 | 
[V:2] e4z2E2 | 
[V:3] c2A2B4 | 
[V:4] A,4G,3F, | 
[V:1] A2G2c2B2 | 
[V:2] F2G2A2B2 | 
[V:3] z2e4d2 | 
[V:4] D,2E,2z2G,2 | 
[V:1] E2A2G3F | 
[V:2] c2d2e3d | 
[V:3] c2A2B4 | 
[V:4] A,2F,2E,2G,2- | 
[V:1] D3EFGAB | 
[V:2] B2d3cA2- | 
[V:3] z8 | 
[V:4] G,F,D,3E,F,G, | 
[V:1] c3BG2C2 | 
[V:2] ABcde2A2 | 
[V:3] z4z2e2- | 
[V:4] A,3B,C3B, | 
[V:1] G2F2c3B | 
[V:2] z2d2ece2- | 
[V:3] e2d2c2A2 | 
[V:4] G,2B,2A,3G, | 
[V:1] G2D2A3G | 
[V:2] edB2cAc2- | 
[V:3] B4z2A2- | 
[V:4] E,2G,2F,3E, | 
[V:1] E2G2A2B2 | 
[V:2] c2B2d4 | 
[V:3] A2G2F2D2 | 
[V:4] C,2E,2D,3C, | 
[V:1] c6BA | 
[V:2] c2A2c4 | 
[V:3] E8- | 
[V:4] A,,8 | 
[V:1] G8- | 
[V:2] B8- | 
[V:3] E8- | 
[V:4] z4E,4 | 
[V:1] G8 |]  
[V:2] B8 |]  
[V:3] E8 |]  
[V:4] E,8 |]  



% FRACTION = 0.9375BUT SHOULD BE 0
